X:1
T:Title
%%score { ( 1 3 ) | ( 2 4 ) }
L:1/8
M:4/4
K:Ab
V:1 treble nm="Grand Piano"
V:3 treble 
V:2 bass 
V:4 bass 
V:1
 z4 z2[Q:1/4=106] [CE]2 | [CE]2 [Ec]2 [FB][FA][EG][DF] | [CE]6 [CE]2 | E2 G2 F3 E | %4
[M:3/4] [CE]2 [CA]4 |[M:1/4] [CE]2 |[M:4/4] [CE]2 [Ec]2 [FB][FA][EG][DF] | [CE]6 [Ec]2 | %8
 [EB]2 [EB]2 [=DB]3 D | F2 E6 | E E2 F GGFE | A6 z2 | F F2 G AAGF | c6 z2 | %14
 [Ec] [DB]2 [Ec] [CA]2 [Ec]2 | [Fe] [Fd]2 [FB] [DF]4 | [CE] [CA]2 B c [Ee]2 [Fd] | %17
[M:7/8] [Ec]2 [DB]2 [CA]3 |] %18
V:2
 z4 z2 [A,,A,]2 | [A,,A,]2 [A,,A,]2 [D,A,][D,A,][D,A,][D,A,] | [A,,A,]6 [A,,A,]2 | %3
 [E,G,D]2 [E,B,D]2 [E,A,D]3 [E,G,D] |[M:3/4] [A,,A,]2 [A,,E,]4 |[M:1/4] [A,,A,]2 | %6
[M:4/4] [A,,A,]2 [A,,A,]2 [D,A,][D,A,][D,A,][D,A,] | [A,,A,]6 [A,,A,]2 | %8
 [B,,G,]2 [B,,G,]2 [B,,F,]3 [B,,A,B,] | [E,A,B,]2 [E,G,B,]6 | %10
 [E,G,D] [E,G,D]2 [E,A,D] [E,B,D][E,B,D][E,A,D][E,G,D] | z2 F,F, E,2 z2 | %12
 [F,A,C] [F,A,C]2 [F,B,C] [F,CF][F,CF][F,B,F][F,A,] | G,2 A,A, G,2 z2 | %14
 [A,,A,] [A,,A,]2 [A,,A,] [A,,A,]2 [A,,A,]2 | [D,A,] [D,A,]2 [D,A,] [D,A,]4 | %16
 [A,,A,] [A,,A,]2 [E,G,E] [A,E] [C,A,]2 [D,A,] |[M:7/8] [E,A,]2 [E,G,]2 [A,,A,]3 |] %18
V:3
 x8 | x8 | x8 | x8 |[M:3/4] x6 |[M:1/4] x2 |[M:4/4] x8 | x8 | x8 | x8 | x8 | [A,C]2 DD C2 z2 | x8 | %13
 =E2 FF E2 z2 | x8 | x8 | x8 |[M:7/8] x7 |] %18
V:4
 x8 | x8 | x8 | x8 |[M:3/4] x6 |[M:1/4] x2 |[M:4/4] x8 | x8 | x8 | x8 | x8 | A,,6 z2 | x8 | %13
 C,6 z2 | x8 | x8 | x8 |[M:7/8] x7 |] %18

